X:1
T:Mrs. Oswald of Auchincruive's Favorite Reel
R:Jig
C:Robert Mackintosh
C:from Hardie Press, 1997
S:printed copy in Concord Slow Scottish Session collection
Z:Terry Traub
M:6/8
K:G
L:1/8
|: A |\
"G"B3 "D"cAd | "Em"G3 "G"GAB | "C"EFG "A"ABc | "A/C#"BAG "D"FED |\
"G"B3 "D7"cAd | "Em"G3 "G/B"GAB | "Am"EcB "D7"AGF | "G"G3 G2 :|
d |\
"G"g3 "D7"gaf | "G/B"gdc "G"BAG | "C"ABc "G"Bcd | "Am"EFG "D"FED |\
"G"g3 "D7"gaf | "G/B"gdc "G"BAG | "Am"Aed "D7"cBA | "G"GGG G2 d ||
"G"gba "D7"gaf | "G"gdc BAG | "C"ABc "G"Bcd | "A"EAG "D"FED |\
"C"EFG "F#dim"ABc | "D"FGA "G"Bcd | "Am"efg "D7"afd | "G"ggg g3 |]
